X:373
T: ZUM HAHN SAGT DIE TAUBA
N: B0445
O: Europa, Mitteleuropa, Oesterreich
R: Liebes - Lied, anti - Ehe
M: 3/4
L: 1/8
K: F
C2 | A2G2F2 | EFG2
C2 | B2A2G2 | FGA2
C2 | A2G2F2 | f2d2
BA | G2GFGA | F2z2

